X:1
T:Title
L:1/8
Q:1/4=65
M:6/8
K:Bb
V:1 treble nm="Church Organ, Staff"
V:1
 d2 B F2 F | G>AG G2 F | F>GA B>AB | Gdc c3 | d2 A B>AG | c2 G A>GF | FG_A =A=ed | cGA F3 | %8
w: By~George~Edgar~Oliver * * *||||||||
 A>GF A>GF | FBc _d2 =d | A>GF A>GF | GDG F3 | G2 G G2 G | Gfe d2 c | B>AG F2 d | cFc B3 |] %16
w: ||||||||

